X: 42
T:Mis Mel
T:Honeymoon
M:2/4
L:1/8
Q:260
S:Mary Richards' (1787-1877) Collection
A:Wales
Z:brian_martin12345@yahoo.com
K:D
Ad dd|df fa|gf ed|ceA2|Ad dd|df fa|ge dc|d2d2:||!
dAA2|Bdd2|AF ED|CEE2|dAA2|Bc de|fg ef|d2d2:||

